src/components/Home/images/y-combinator.svg

<svg width="212" height="44" viewBox="0 0 212 44" fill="none" xmlns="http://www.w3.org/2000/svg">
<path fill-rule="evenodd" clip-rule="evenodd" d="M0 0H43.8621V44H0V0ZM12.8669 10.7067L20.4697 24.9334V34.1734H23.3938V25.0801L30.9966 10.7067H27.78L23.3938 19.6534C23.1014 20.0934 22.809 20.5334 22.6628 20.9734C22.5786 21.3111 22.446 21.5516 22.3208 21.7788C22.2284 21.9463 22.14 22.1067 22.0779 22.2934C22.0048 22.2201 21.9683 22.1101 21.9317 22.0001C21.8952 21.8901 21.8586 21.7801 21.7855 21.7067C21.7124 21.5601 21.6759 21.4501 21.6393 21.3401C21.6028 21.2301 21.5662 21.1201 21.4931 20.9734V20.8267L21.3469 20.6801C21.2911 20.568 21.2565 20.4774 21.2271 20.4C21.1794 20.2747 21.1448 20.184 21.0545 20.0934C20.9083 19.9467 20.7621 19.8001 20.7621 19.6534L16.3759 10.7067H12.8669Z" fill="black"/>
<path d="M63.893 8.50684C66.0861 8.50684 67.9868 9.0935 69.4488 10.2668L67.9868 12.0268C66.6709 11.1468 65.355 10.5602 63.7468 10.5602C61.2612 10.5602 59.3605 11.8802 58.3371 14.3735C57.7523 15.8402 57.4599 17.7468 57.4599 20.2402C57.4599 22.1468 57.7523 23.7602 58.1909 24.9335C59.3605 27.7202 61.2612 29.0402 64.1854 29.0402C65.7937 29.0402 67.2557 28.6002 68.5716 27.5735L70.0337 29.4802C68.133 30.6535 66.0861 31.2402 63.893 31.2402C61.2612 31.2402 59.0681 30.2135 57.3136 28.0135C55.5592 25.9602 54.8281 23.1735 54.8281 19.8002C54.8281 16.4268 55.7054 13.7868 57.4599 11.5868C59.0681 9.68017 61.2612 8.50684 63.893 8.50684Z" fill="black"/>
<path d="M72.2266 23.0262C72.2266 20.3862 72.8114 18.3329 74.1273 16.8662C75.4431 15.3995 77.0514 14.5195 79.0983 14.5195C81.4376 14.5195 83.3383 15.3995 84.6541 17.3062C85.6776 18.7729 86.1162 20.8262 86.1162 23.3195C86.1162 26.2529 85.239 28.5995 83.6307 30.0662C82.461 31.0929 80.999 31.6795 79.2445 31.6795C77.0514 31.6795 75.4431 30.9462 74.1273 29.3329C72.8114 27.8662 72.2266 25.6662 72.2266 23.0262ZM82.461 18.7729C81.73 17.4529 80.7066 16.7195 79.0983 16.7195C77.49 16.7195 76.4666 17.3062 75.7355 18.4795C75.1507 19.3595 75.0045 20.8262 75.0045 22.7329C75.0045 25.2262 75.2969 26.9862 76.0279 28.0129C76.759 29.0395 77.7824 29.6262 79.2445 29.6262C80.999 29.6262 82.1686 28.7462 82.7534 27.1329C83.0459 26.2529 83.1921 25.0795 83.1921 23.6129C83.3383 21.4129 83.0459 19.7995 82.461 18.7729Z" fill="black"/>
<path d="M90.7948 19.0662C90.7948 17.4529 90.6486 16.1329 90.21 15.1062L92.6955 14.5195C93.1341 15.2529 93.2803 16.1329 93.2803 16.8662V17.0129C93.8651 16.4262 94.45 15.8395 95.3272 15.3995C96.3506 14.8129 97.2279 14.5195 98.1051 14.5195C99.421 14.5195 100.591 15.1062 101.322 16.1329C101.468 16.4262 101.76 16.8662 101.907 17.1595C103.661 15.3995 105.269 14.5195 107.024 14.5195C108.193 14.5195 109.217 14.9595 109.948 15.6929C110.679 16.5729 111.118 17.5995 111.118 18.7729V30.9462H108.486V18.9195C108.486 17.3062 107.755 16.5729 106.439 16.5729C105.708 16.5729 104.831 16.8662 104.1 17.4529C103.807 17.7462 103.222 18.1862 102.491 18.7729L102.199 19.0662V30.9462H99.421V19.5062C99.421 18.4795 99.2748 17.7462 98.9824 17.4529C98.5437 17.0129 98.1051 16.8662 97.3741 16.8662C96.2044 16.8662 94.8886 17.5995 93.2803 19.0662V31.0929H90.7948V19.0662Z" fill="black"/>
<path d="M115.65 7.91967L118.282 7.33301C118.575 8.50634 118.721 9.82634 118.721 11.4397V15.1063C118.721 15.9863 118.721 16.573 118.721 16.8663C120.183 15.3997 121.791 14.6663 123.399 14.6663C125.3 14.6663 126.908 15.3997 127.932 16.8663C129.101 18.333 129.686 20.3863 129.686 22.8797C129.686 25.5197 129.101 27.573 127.932 29.1863C126.762 30.7997 125.154 31.533 123.253 31.533C122.376 31.533 121.645 31.3863 120.768 30.9463C119.89 30.5063 119.306 30.0663 118.867 29.4797C118.721 30.213 118.575 30.7997 118.428 31.2397H115.943C116.235 30.5063 116.381 29.1863 116.381 27.133V11.733C116.235 9.97301 116.089 8.65301 115.65 7.91967ZM119.89 17.893C119.452 18.1863 119.013 18.6263 118.721 19.0663V27.4263C119.744 28.7463 121.06 29.333 122.668 29.333C123.984 29.333 125.008 28.893 125.592 27.8663C126.324 26.693 126.762 25.0797 126.762 22.733C126.762 20.6797 126.47 19.213 125.739 18.333C125.154 17.453 124.13 17.013 122.668 17.013C121.791 16.8663 120.768 17.1597 119.89 17.893Z" fill="black"/>
<path d="M133.486 9.97326C133.486 9.38659 133.633 8.94659 134.071 8.50659C134.51 8.06659 134.948 7.91992 135.533 7.91992C136.118 7.91992 136.557 8.06659 136.995 8.50659C137.434 8.94659 137.58 9.38659 137.58 9.97326C137.58 10.5599 137.434 10.9999 136.995 11.4399C136.557 11.8799 136.118 12.0266 135.533 12.0266C134.948 12.0266 134.51 11.8799 134.071 11.4399C133.633 10.9999 133.486 10.5599 133.486 9.97326ZM134.071 31.0933V14.9599L136.703 14.5199V31.0933H134.071Z" fill="black"/>
<path d="M142.406 19.0662C142.406 17.8929 142.406 17.1595 142.26 16.8662C142.26 16.4262 141.967 15.9862 141.675 15.2529L144.16 14.5195C144.599 15.3995 144.745 16.1329 144.745 17.0129C146.353 15.3995 148.108 14.5195 149.862 14.5195C150.74 14.5195 151.471 14.6662 152.202 15.1062C152.933 15.5462 153.518 16.1329 153.81 16.8662C154.102 17.4529 154.249 18.0395 154.249 18.7729V31.0929H151.763V20.0929C151.763 18.7729 151.617 17.8929 151.178 17.4529C150.74 17.0129 150.155 16.7195 149.424 16.7195C148.839 16.7195 147.962 17.0129 147.084 17.4529C146.207 17.8929 145.476 18.4795 144.891 19.0662V31.0929H142.406V19.0662Z" fill="black"/>
<path d="M160.097 18.4795L158.781 16.7195C160.974 15.2529 163.167 14.5195 165.506 14.5195C167.846 14.5195 169.308 15.3995 170.039 17.0129C170.331 17.5995 170.331 18.4795 170.331 19.7995V20.6795L170.185 25.9595C170.185 26.1062 170.185 26.3995 170.185 26.6929C170.185 27.5729 170.185 28.1595 170.331 28.5995C170.477 29.1862 170.916 29.6262 171.501 29.9195L170.185 31.6795C169.015 31.2395 168.284 30.5062 167.992 29.3329C166.53 30.7995 164.922 31.5329 163.313 31.5329C161.705 31.5329 160.389 31.0929 159.366 30.2129C158.488 29.4795 158.05 28.3062 158.05 26.8395C158.05 24.9329 158.781 23.6129 160.243 22.5862C161.705 21.5595 163.898 21.1195 166.53 21.1195C166.968 21.1195 167.261 21.1195 167.699 21.1195V19.9462C167.699 18.6262 167.553 17.7462 167.115 17.4529C166.53 16.8662 165.945 16.5729 164.922 16.5729C164.044 16.5729 163.021 16.8662 161.851 17.3062C161.413 17.5995 160.828 18.0395 160.097 18.4795ZM167.846 27.1329L167.992 22.8795C167.261 22.8795 166.822 22.8795 166.676 22.8795C164.337 22.8795 162.875 23.3195 161.997 24.1995C161.413 24.7862 161.12 25.6662 161.12 26.8395C161.12 28.7462 161.997 29.7729 163.898 29.7729C165.653 29.6262 166.968 28.7462 167.846 27.1329Z" fill="black"/>
<path d="M178.666 14.9599H182.76L182.029 17.0133H178.666V27.4266C178.666 28.3066 178.812 28.8933 179.105 29.3333C179.397 29.6266 179.982 29.9199 180.713 29.9199C181.298 29.9199 181.882 29.7733 182.321 29.6266L182.613 31.2399C181.736 31.6799 180.859 31.8266 179.836 31.8266C177.35 31.8266 176.18 30.6533 176.18 28.1599V17.0133H173.987V14.9599H176.034V14.6666C176.034 14.3733 176.18 13.1999 176.327 11.2933V10.8533L178.958 10.2666C178.666 12.0266 178.666 13.6399 178.666 14.9599Z" fill="black"/>
<path d="M185.392 23.0262C185.392 20.3862 185.976 18.3329 187.292 16.8662C188.462 15.3995 190.216 14.5195 192.263 14.5195C194.603 14.5195 196.503 15.3995 197.819 17.3062C198.843 18.7729 199.281 20.8262 199.281 23.3195C199.281 26.2529 198.404 28.5995 196.796 30.0662C195.626 31.0929 194.164 31.6795 192.41 31.6795C190.216 31.6795 188.608 30.9462 187.292 29.3329C186.123 27.8662 185.392 25.6662 185.392 23.0262ZM195.772 18.7729C195.041 17.4529 194.018 16.7195 192.41 16.7195C190.801 16.7195 189.778 17.3062 189.047 18.4795C188.462 19.3595 188.316 20.8262 188.316 22.7329C188.316 25.2262 188.608 26.9862 189.339 28.0129C190.07 29.0395 191.094 29.6262 192.556 29.6262C194.31 29.6262 195.48 28.7462 196.065 27.1329C196.357 26.2529 196.503 25.0795 196.503 23.6129C196.503 21.4129 196.211 19.7995 195.772 18.7729Z" fill="black"/>
<path d="M204.104 18.7729C204.104 17.3062 203.958 16.1329 203.52 15.2529L206.005 14.5195C206.444 15.3995 206.59 16.1329 206.59 17.0129V17.3062C207.906 15.5462 209.368 14.6662 211.122 14.6662C211.415 14.6662 211.707 14.6662 212 14.8129L210.976 17.5995C210.684 17.4529 210.391 17.4529 210.245 17.4529C209.66 17.4529 208.929 17.5995 208.344 18.0395C207.76 18.4795 207.175 18.9195 206.882 19.5062C206.736 19.9462 206.59 20.5329 206.59 21.2662V31.3862H204.104V18.7729Z" fill="black"/>
</svg>

<svg fill="none" xmlns="http://www.w3.org/2000/svg" viewBox="0 0 212 44"><path fill-rule="evenodd" clip-rule="evenodd" d="M0 0h43.862v44H0V0Zm12.867 10.707 7.603 14.226v9.24h2.924V25.08l7.603-14.373H27.78l-4.386 8.946c-.293.44-.585.88-.731 1.32-.084.338-.217.579-.342.806-.093.167-.181.328-.243.514-.073-.073-.11-.183-.146-.293-.037-.11-.073-.22-.146-.293-.074-.147-.11-.257-.147-.367a2.529 2.529 0 0 0-.146-.367v-.146l-.146-.147a2.881 2.881 0 0 1-.12-.28c-.048-.125-.082-.216-.172-.307-.147-.146-.293-.293-.293-.44l-4.386-8.946h-3.51Z" fill="#000"/><path d="M63.893 8.507c2.193 0 4.094.586 5.556 1.76l-1.462 1.76c-1.316-.88-2.632-1.467-4.24-1.467-2.486 0-4.386 1.32-5.41 3.813-.585 1.467-.877 3.374-.877 5.867 0 1.907.292 3.52.73 4.693 1.17 2.787 3.071 4.107 5.995 4.107 1.609 0 3.07-.44 4.387-1.467l1.462 1.907c-1.901 1.173-3.948 1.76-6.141 1.76-2.632 0-4.825-1.027-6.58-3.227-1.754-2.053-2.485-4.84-2.485-8.213 0-3.373.877-6.013 2.632-8.213 1.608-1.907 3.801-3.08 6.433-3.08ZM72.226 23.027c0-2.64.585-4.694 1.9-6.16 1.317-1.467 2.925-2.347 4.972-2.347 2.34 0 4.24.88 5.556 2.787 1.023 1.466 1.462 3.52 1.462 6.013 0 2.933-.877 5.28-2.486 6.747-1.17 1.026-2.631 1.613-4.386 1.613-2.193 0-3.801-.733-5.117-2.347-1.316-1.466-1.9-3.666-1.9-6.306Zm10.235-4.254c-.731-1.32-1.755-2.053-3.363-2.053s-2.632.587-3.363 1.76c-.585.88-.731 2.347-.731 4.253 0 2.494.292 4.254 1.023 5.28.731 1.027 1.755 1.614 3.217 1.614 1.755 0 2.924-.88 3.509-2.494.292-.88.439-2.053.439-3.52.146-2.2-.147-3.813-.731-4.84ZM90.795 19.067c0-1.614-.146-2.934-.585-3.96l2.486-.587c.438.733.584 1.613.584 2.347v.146c.585-.586 1.17-1.173 2.047-1.613 1.024-.587 1.9-.88 2.778-.88 1.316 0 2.486.587 3.217 1.613.146.294.438.734.585 1.027 1.754-1.76 3.362-2.64 5.117-2.64 1.169 0 2.193.44 2.924 1.173.731.88 1.17 1.907 1.17 3.08v12.174h-2.632V18.92c0-1.613-.731-2.347-2.047-2.347-.731 0-1.608.294-2.339.88-.293.294-.878.734-1.609 1.32l-.292.294v11.88h-2.778v-11.44c0-1.027-.146-1.76-.439-2.054-.438-.44-.877-.586-1.608-.586-1.17 0-2.485.733-4.094 2.2v12.026h-2.485V19.067ZM115.65 7.92l2.632-.587c.293 1.174.439 2.494.439 4.107v5.427c1.462-1.467 3.07-2.2 4.678-2.2 1.901 0 3.509.733 4.533 2.2 1.169 1.466 1.754 3.52 1.754 6.013 0 2.64-.585 4.693-1.754 6.307-1.17 1.613-2.778 2.346-4.679 2.346a5.15 5.15 0 0 1-2.485-.586c-.878-.44-1.462-.88-1.901-1.467-.146.733-.292 1.32-.439 1.76h-2.485c.292-.733.438-2.053.438-4.107v-15.4c-.146-1.76-.292-3.08-.731-3.813Zm4.24 9.973a4.457 4.457 0 0 0-1.169 1.174v8.36c1.023 1.32 2.339 1.906 3.947 1.906 1.316 0 2.34-.44 2.924-1.466.732-1.174 1.17-2.787 1.17-5.134 0-2.053-.292-3.52-1.023-4.4-.585-.88-1.609-1.32-3.071-1.32-.877-.146-1.9.147-2.778.88ZM133.487 9.973c0-.586.146-1.026.585-1.466.438-.44.877-.587 1.462-.587s1.023.147 1.462.587c.438.44.585.88.585 1.466 0 .587-.147 1.027-.585 1.467-.439.44-.877.587-1.462.587s-1.024-.147-1.462-.587c-.439-.44-.585-.88-.585-1.467Zm.585 21.12V14.96l2.631-.44v16.573h-2.631ZM142.406 19.067c0-1.174 0-1.907-.146-2.2 0-.44-.292-.88-.585-1.614l2.486-.733c.438.88.585 1.613.585 2.493 1.608-1.613 3.362-2.493 5.117-2.493.877 0 1.608.147 2.339.587.731.44 1.316 1.026 1.608 1.76.293.586.439 1.173.439 1.906v12.32h-2.485v-11c0-1.32-.147-2.2-.585-2.64a2.42 2.42 0 0 0-1.755-.733c-.585 0-1.462.293-2.339.733a8.525 8.525 0 0 0-2.193 1.614v12.026h-2.486V19.067ZM160.096 18.48l-1.316-1.76c2.193-1.467 4.387-2.2 6.726-2.2 2.339 0 3.801.88 4.532 2.493.293.587.293 1.467.293 2.787v.88l-.147 5.28v.733c0 .88 0 1.467.147 1.907.146.587.585 1.027 1.169 1.32l-1.316 1.76c-1.169-.44-1.9-1.173-2.193-2.347-1.462 1.467-3.07 2.2-4.678 2.2-1.609 0-2.924-.44-3.948-1.32-.877-.733-1.316-1.906-1.316-3.373 0-1.907.731-3.227 2.193-4.253 1.462-1.027 3.656-1.467 6.287-1.467h1.17v-1.173c0-1.32-.146-2.2-.585-2.494-.585-.586-1.17-.88-2.193-.88-.877 0-1.901.294-3.07.734-.439.293-1.024.733-1.755 1.173Zm7.749 8.653.146-4.253h-1.315c-2.34 0-3.802.44-4.679 1.32-.585.587-.877 1.467-.877 2.64 0 1.907.877 2.933 2.778 2.933 1.754-.146 3.07-1.026 3.947-2.64ZM178.665 14.96h4.094l-.731 2.053h-3.363v10.414c0 .88.147 1.466.439 1.906.292.294.877.587 1.608.587.585 0 1.17-.147 1.609-.293l.292 1.613c-.877.44-1.754.587-2.778.587-2.485 0-3.655-1.174-3.655-3.667V17.013h-2.193V14.96h2.047v-.293c0-.294.146-1.467.292-3.374v-.44l2.632-.586c-.293 1.76-.293 3.373-.293 4.693ZM185.392 23.027c0-2.64.584-4.694 1.9-6.16 1.17-1.467 2.924-2.347 4.971-2.347 2.34 0 4.24.88 5.556 2.787 1.024 1.466 1.462 3.52 1.462 6.013 0 2.933-.877 5.28-2.485 6.747-1.17 1.026-2.632 1.613-4.386 1.613-2.194 0-3.802-.733-5.118-2.347-1.169-1.466-1.9-3.666-1.9-6.306Zm10.38-4.254c-.731-1.32-1.754-2.053-3.362-2.053-1.609 0-2.632.587-3.363 1.76-.585.88-.731 2.347-.731 4.253 0 2.494.292 4.254 1.023 5.28.731 1.027 1.755 1.614 3.217 1.614 1.754 0 2.924-.88 3.509-2.494.292-.88.438-2.053.438-3.52 0-2.2-.292-3.813-.731-4.84ZM204.104 18.773c0-1.466-.146-2.64-.584-3.52l2.485-.733c.439.88.585 1.613.585 2.493v.294c1.316-1.76 2.778-2.64 4.532-2.64.293 0 .585 0 .878.146l-1.024 2.787c-.292-.147-.585-.147-.731-.147-.585 0-1.316.147-1.901.587-.584.44-1.169.88-1.462 1.467a5.493 5.493 0 0 0-.292 1.76v10.12h-2.486V18.773Z" fill="#000"/></svg>
